dist/img/logo/its_logo.svg

<svg width="129" height="27" viewBox="0 0 129 27" fill="none" xmlns="http://www.w3.org/2000/svg">

<path d="M6.44775 7.24121H8.22136V19.6668H6.44775V7.24121Z" fill="#fff" stroke="#fff" stroke-width="0.870968"/>
<path d="M15.7908 9.11856H11.0112V7.24121H23.2072V9.11856H18.4636H18.0556V9.52649V19.6669H16.1987V9.52649V9.11856H15.7908Z" fill="#fff" stroke="#fff" stroke-width="0.870968"/>
<path d="M37.4106 9.47905V6.83301H28.6666C25.9558 6.83301 24.9146 8.40874 24.9146 10.9526C24.9146 13.4966 26.4097 14.6876 28.6666 14.6876H32.9118L34.2741 14.6871C35.3203 14.6871 35.3506 15.7198 35.3506 16.3396C35.3506 16.9593 35.1103 17.6246 34.2684 17.6246H25.2504V20.0746H34.2684C36.5253 20.0746 38.0205 18.8835 38.0204 16.3396C38.0204 13.7956 36.9825 12.239 34.2718 12.239L32.9118 12.2377H28.6666C27.8247 12.2377 27.5845 11.5724 27.5845 10.9526C27.5845 10.3329 27.5845 9.47905 28.6307 9.47905H37.4106Z" fill="#fff"/>
<path d="M60.4896 7.23438V9.12641H51.6709C51.294 9.12641 50.9692 9.14656 50.6978 9.2075C50.4221 9.26942 50.1748 9.3794 49.9828 9.57797C49.7913 9.77614 49.6932 10.0229 49.6407 10.2856C49.589 10.5434 49.5758 10.8454 49.5758 11.1816V16.0665C49.5758 16.6548 49.7334 17.168 50.1267 17.5258C50.5122 17.8767 51.0522 18.0116 51.6709 18.0116H58.2684H58.6763V17.6037V14.6878V14.2798H58.2684H55.7228V12.6374H60.4824V19.6673H51.3707C49.5404 19.6673 48.6599 19.3317 48.2184 18.8851C47.7824 18.4439 47.6758 17.7974 47.6758 16.8646V10.3351C47.6758 9.19053 47.8042 8.47112 48.2515 8.00831C48.7 7.54437 49.5736 7.23438 51.3707 7.23438H60.4896Z" fill="#fff" stroke="#fff" stroke-width="0.870968"/>
<path d="M65.2892 15.73V19.6675H63.5142V7.25586H72.0236C73.5755 7.25586 74.4792 7.71998 74.9938 8.23082C75.5184 8.75165 75.6741 9.35472 75.6741 9.68342V13.1994C75.6741 13.6046 75.529 14.1205 75.0714 14.5383C74.6132 14.9569 73.7918 15.3221 72.3532 15.3221H71.4655L72.0436 15.9957L75.1945 19.6675H73.8777H72.8019L69.3443 15.4707L69.2052 15.3017L68.9874 15.3243C68.9479 15.3284 68.8448 15.3294 68.689 15.3275C68.6441 15.3269 68.596 15.3262 68.5469 15.3255C68.4416 15.3238 68.3313 15.3221 68.2363 15.3221H65.6971H65.2892V15.73ZM65.6971 8.83601H65.2892V9.24393V13.4546V13.8625H65.6971H72.0236C72.8252 13.8625 73.3344 13.5953 73.6073 13.1579C73.8468 12.7742 73.8462 12.3361 73.846 12.1247C73.846 12.1179 73.846 12.1114 73.846 12.1051V10.3497C73.846 10.3464 73.846 10.3428 73.846 10.339C73.8462 10.1928 73.8466 9.80278 73.5906 9.45246C73.311 9.06983 72.8095 8.83601 72.0236 8.83601H65.6971Z" fill="#fff" stroke="#fff" stroke-width="0.870968"/>
<path d="M82.4434 7.25586H87.5807C89.5575 7.25586 91.2969 8.85445 91.2969 10.7764V16.2964C91.2969 18.2027 89.5747 19.6975 87.5807 19.6975H82.4434C80.4448 19.6975 78.6982 18.1993 78.6982 16.2964V10.7764C78.6982 8.85795 80.462 7.25586 82.4434 7.25586ZM87.5807 18.1613C88.1673 18.1613 88.6601 17.8328 88.9913 17.4213C89.3226 17.0093 89.533 16.4669 89.533 15.938V11.1349C89.533 10.6088 89.325 10.048 88.9987 9.61677C88.6748 9.18862 88.1812 8.82263 87.5807 8.82263H82.4434C81.8454 8.82263 81.3518 9.18919 81.0279 9.61628C80.7013 10.0469 80.4905 10.6078 80.4905 11.1349V15.938C80.4905 16.4681 80.7035 17.0104 81.0355 17.4218C81.3666 17.8321 81.8592 18.1613 82.4434 18.1613H87.5807Z" fill="#fff" stroke="#fff" stroke-width="0.870968"/>
<path d="M105.292 15.4108V7.25567H107.156V16.2898C107.156 18.1506 105.627 19.6673 103.727 19.6673H97.7495C95.8502 19.6673 94.3213 18.1506 94.3213 16.2898V7.25L96.148 7.25463V15.4176C96.148 16.3493 96.3242 17.047 96.821 17.4859C97.3048 17.9135 97.9934 18.0011 98.7481 18.0011H102.908C103.668 18.0011 104.312 17.8682 104.744 17.3987C105.166 16.9399 105.292 16.2565 105.292 15.4108Z" fill="#fff" stroke="#fff" stroke-width="0.870968"/>
<path d="M113.025 13.2275C113.025 13.3551 113.032 13.4756 113.053 13.5961H113.025V13.2275Z" fill="#fff"/>
<path d="M113.053 9.22949C113.032 9.34999 113.025 9.47049 113.025 9.59809V9.22949H113.053Z" fill="#fff"/>
<path d="M113.025 13.2275C113.025 13.3551 113.032 13.4756 113.053 13.5961H113.025V13.2275Z" fill="#fff"/>
<path d="M113.053 9.22949C113.032 9.34999 113.025 9.47049 113.025 9.59809V9.22949H113.053Z" fill="#fff"/>
<path d="M112.41 15.5977H112.002V16.0056V19.6665H110.181V7.22656H119.006C121.371 7.22656 122.456 8.67175 122.456 9.9518V13.0071C122.456 14.2486 121.147 15.5977 119.006 15.5977H112.41ZM112.002 13.5954V14.0034H112.41H119.006C120.038 14.0034 120.879 13.1808 120.879 12.1494V10.6749C120.879 9.64342 120.038 8.82088 119.006 8.82088H112.41H112.002V9.2288V13.5954Z" fill="#fff" stroke="#fff" stroke-width="0.870968"/>

</svg>

<svg width="129" height="27" viewBox="0 0 129 27" fill="none" xmlns="http://www.w3.org/2000/svg"><path d="M6.448 7.241H8.22v12.426H6.448V7.24zm9.342 1.878h-4.779V7.24h12.196v1.88h-5.151v10.547h-1.857V9.12h-.408z" fill="#fff" stroke="#fff" stroke-width=".871"/><path d="M37.41 9.48V6.832h-8.743c-2.711 0-3.752 1.576-3.752 4.12s1.495 3.735 3.752 3.735h5.607c1.046 0 1.077 1.032 1.077 1.652 0 .62-.24 1.285-1.083 1.285H25.25v2.45h9.018c2.257 0 3.752-1.191 3.752-3.735 0-2.544-1.038-4.101-3.748-4.101l-1.36-.001h-4.245c-.842 0-1.083-.666-1.083-1.285 0-.62 0-1.474 1.047-1.474h8.78z" fill="#fff"/><path d="M60.49 7.234v1.892h-8.82c-.376 0-.7.02-.972.082-.276.061-.523.171-.715.37-.192.198-.29.445-.342.708-.052.257-.065.56-.065.896v4.885c0 .588.157 1.101.55 1.459.386.35.926.486 1.545.486h7.005V14.28h-2.953v-1.643h4.76v7.03H51.37c-1.83 0-2.711-.335-3.153-.782-.436-.441-.542-1.088-.542-2.02v-6.53c0-1.144.128-1.864.575-2.327.449-.464 1.323-.774 3.12-.774h9.119zm4.8 8.496v3.938h-1.776V7.255h8.51c1.552 0 2.455.464 2.97.975.524.52.68 1.124.68 1.452V13.2c0 .406-.145.921-.603 1.34-.458.418-1.28.783-2.718.783h-.887l.578.674 3.15 3.671h-2.391l-3.458-4.196-.139-.17-.218.023c-.04.004-.142.005-.298.004l-.142-.002a20.251 20.251 0 00-.31-.004H65.29v.408zm.407-6.894h-.408v5.027h6.735c.801 0 1.31-.268 1.583-.705.24-.384.24-.822.239-1.033v-1.786c0-.146 0-.536-.255-.887-.28-.382-.781-.616-1.567-.616h-6.327zm16.746-1.58h5.138c1.977 0 3.716 1.598 3.716 3.52v5.52c0 1.907-1.722 3.402-3.716 3.402h-5.138c-1.998 0-3.745-1.499-3.745-3.402v-5.52c0-1.918 1.764-3.52 3.745-3.52zm5.138 10.905c.586 0 1.08-.328 1.41-.74.332-.412.542-.954.542-1.483v-4.803c0-.526-.208-1.087-.534-1.518-.324-.428-.818-.794-1.418-.794h-5.138c-.598 0-1.091.366-1.415.793-.327.43-.538.992-.538 1.519v4.803c0 .53.214 1.072.546 1.484.33.41.823.74 1.407.74h5.138zm17.711-2.751V7.257h1.864v9.034c0 1.86-1.529 3.377-3.429 3.377h-5.978c-1.899 0-3.428-1.516-3.428-3.377V7.25l1.827.005v8.163c0 .931.176 1.629.673 2.068.484.427 1.172.515 1.927.515h4.16c.76 0 1.404-.133 1.836-.602.422-.46.548-1.143.548-1.988z" fill="#fff" stroke="#fff" stroke-width=".871"/><path d="M113.025 13.227c0 .128.007.249.028.37h-.028v-.37zm.028-3.997a2.11 2.11 0 00-.028.368V9.23h.028z" fill="#fff"/><path d="M113.025 13.227c0 .128.007.249.028.37h-.028v-.37zm.028-3.997a2.11 2.11 0 00-.028.368V9.23h.028z" fill="#fff"/><path d="M112.41 15.598h-.408v4.068h-1.821V7.226h8.825c2.365 0 3.45 1.446 3.45 2.726v3.055c0 1.242-1.309 2.59-3.45 2.59h-6.596zm-.408-2.003v.408h7.004a1.86 1.86 0 001.873-1.854v-1.474a1.86 1.86 0 00-1.873-1.854h-7.004v4.774z" fill="#fff" stroke="#fff" stroke-width=".871"/></svg>
